icon/pk/inbox-in.svg

<svg viewBox="0 0 48 48" fill="none" xmlns="http://www.w3.org/2000/svg" height="1em" width="1em">
  <path d="M5 30L10 6H38L43 30" stroke="black" stroke-width="4" stroke-linecap="round" stroke-linejoin="round"/>
  <path d="M5 30H14.9091L16.7273 36H31.2727L33.0909 30H43V43H5V30Z" fill="#2F88FF" stroke="black" stroke-width="4" stroke-linejoin="round"/>
  <path d="M18 20L24 26L30 20" stroke="black" stroke-width="4" stroke-linecap="round" stroke-linejoin="round"/>
  <path d="M24 26V14" stroke="black" stroke-width="4" stroke-linecap="round" stroke-linejoin="round"/>
</svg>

<svg width="48" height="48" fill="none" xmlns="http://www.w3.org/2000/svg"><path d="m5 30 5-24h28l5 24" stroke="#000" stroke-width="4" stroke-linecap="round" stroke-linejoin="round"/><path d="M5 30h9.91l1.817 6h14.546l1.818-6H43v13H5V30Z" fill="#2F88FF" stroke="#000" stroke-width="4" stroke-linejoin="round"/><path d="m18 20 6 6 6-6M24 26V14" stroke="#000" stroke-width="4" stroke-linecap="round" stroke-linejoin="round"/></svg>
